X: 5
T: Ben Hill
R: reel
M: 4/4
L: 1/8
K: Gmaj
dedB cBAB|G2BG DGBG|~A2AB cBAG|EAAG ABce|
dedB cBAB|G2BG DGBG|AGAB cdef|gdcA AGG2:|
dggf gdBd|eaag ageg|(3fed ad bd ad|~g2ge dcBc|
dggf gdBd|eaag agef|gage d2Bc|dBcA BGG2:|


Tune 6899	Setting 18488

